icon-themes/breeze_svg/cmd/lc_extrusiondepthfloater.svg

<svg viewBox="0 0 24 24" xmlns="http://www.w3.org/2000/svg"><path d="m11 4-6 6h10v9l6-6v-9z" fill="#b3b3b3"/><path d="m10.28125 4s-.276707.28365-.28125.28125l-5.71875 5.71875-.28125.292969v9.707031h10.6875l.3125-.3125 5.6875-5.6875.3125-.3125v-1.40625-7.59375-.6875h-.71875-8.59375zm.40625 1h.3125 8.28125l-5 5h-3.28125l2-2h2l-1-2-5 2h2l-2 2h-3.3125zm9.3125.6875v7.3125.28125l-5 5v-7.59375zm-15 5.3125h9v8h-9z" fill="#4d4d4d"/></svg>

<svg xmlns="http://www.w3.org/2000/svg" viewBox="0 0 24 24">
 <path 
     style="fill:#b3b3b3" 
     d="M 11 4 L 5 10 L 15 10 L 15 19 L 21 13 L 21 4 L 11 4 z "
     />
 <path 
     style="fill:#4d4d4d" 
     d="M 10.28125 4 C 10.28125 4 10.004543 4.28365 10 4.28125 L 4.28125 10 L 4 10.292969 L 4 20 L 14.6875 20 L 15 19.6875 L 20.6875 14 L 21 13.6875 L 21 12.28125 L 21 4.6875 L 21 4 L 20.28125 4 L 11.6875 4 L 10.28125 4 z M 10.6875 5 L 11 5 L 19.28125 5 L 14.28125 10 L 11 10 L 13 8 L 15 8 L 14 6 L 9 8 L 11 8 L 9 10 L 5.6875 10 L 10.6875 5 z M 20 5.6875 L 20 13 L 20 13.28125 L 15 18.28125 L 15 10.6875 L 20 5.6875 z M 5 11 L 14 11 L 14 19 L 5 19 L 5 11 z "
     />
 </svg>
